images/svg/facebook.svg

<svg xmlns="http://www.w3.org/2000/svg" width="24" height="24" fill="none"><g clip-path="url(#a)"><path fill="#F4F4FD" d="M15.997 3.985h2.191V.169C17.81.117 16.51 0 14.996 0c-3.159 0-5.323 1.987-5.323 5.639V9H6.187v4.266h3.486V24h4.274V13.267h3.345l.531-4.266h-3.877V6.062c.001-1.233.333-2.077 2.051-2.077Z"/></g><defs><clipPath id="a"><path fill="#fff" d="M0 0h24v24H0z"/></clipPath></defs></svg>

<svg width="24" height="24" viewBox="0 0 24 24" fill="none" xmlns="http://www.w3.org/2000/svg">
<g clip-path="url(#clip0_297016_408)">
<path d="M15.997 3.985H18.188V0.169C17.81 0.117 16.51 0 14.996 0C11.837 0 9.67301 1.987 9.67301 5.639V9H6.18701V13.266H9.67301V24H13.947V13.267H17.292L17.823 9.001H13.946V6.062C13.947 4.829 14.279 3.985 15.997 3.985Z" fill="#F4F4FD"/>
</g>
<defs>
<clipPath id="clip0_297016_408">
<rect width="24" height="24" fill="white"/>
</clipPath>
</defs>
</svg>
